svgs/regular/window-restore.svg

<svg xmlns="http://www.w3.org/2000/svg" viewBox="0 0 512 512"><!--! Font Awesome Pro 6.3.0 by @fontawesome - https://fontawesome.com License - https://fontawesome.com/license (Commercial License) Copyright 2023 Fonticons, Inc. --><path d="M432 48H208c-17.7 0-32 14.3-32 32V96H128V80c0-44.2 35.8-80 80-80H432c44.2 0 80 35.8 80 80V304c0 44.2-35.8 80-80 80H416V336h16c17.7 0 32-14.3 32-32V80c0-17.7-14.3-32-32-32zM48 448c0 8.8 7.2 16 16 16H320c8.8 0 16-7.2 16-16V256H48V448zM64 128H320c35.3 0 64 28.7 64 64V448c0 35.3-28.7 64-64 64H64c-35.3 0-64-28.7-64-64V192c0-35.3 28.7-64 64-64z"/></svg>

<svg xmlns="http://www.w3.org/2000/svg" viewBox="0 0 512 512"><!--! Font Awesome Pro 6.2.0 by @fontawesome - https://fontawesome.com License - https://fontawesome.com/license (Commercial License) Copyright 2022 Fonticons, Inc. --><path d="M432 48H208C190.3 48 176 62.33 176 80V96H128V80C128 35.82 163.8 0 208 0H432C476.2 0 512 35.82 512 80V304C512 348.2 476.2 384 432 384H416V336H432C449.7 336 464 321.7 464 304V80C464 62.33 449.7 48 432 48zM320 128C355.3 128 384 156.7 384 192V448C384 483.3 355.3 512 320 512H64C28.65 512 0 483.3 0 448V192C0 156.7 28.65 128 64 128H320zM64 464H320C328.8 464 336 456.8 336 448V256H48V448C48 456.8 55.16 464 64 464z"/></svg>
